X: 2325
T: SMITH'S HORNPIPE
%R: hornpipe, reel
B: James Kerr "Merry Melodies" v.2 p.36 #325
Z: 2016 John Chambers <jc:trillian.mit.edu>
M: C
L: 1/8
K: D
uA2 |\
dcdA Bcde | gfed cBAG |\
FAdf gfed | e2A2 A2 (Bc) |\
dAeA fAgA | aAbA dcBA |\
dfeg faeg | f2d2 d2 :|
|: uf2 |\
agfe dfga | b2e2 e2d2 |\
cAeA fAed | c2A2 A2 (Bc) |\
dAeA fAgA | aAbA dcBA |\
dfeg faeg | f2d2 d2 :|
